X: 78
T: No_169_Two-direction_Dance_Song_(a).krn
N: Derived from No_169_Two-direction_Dance_Song_(a).krn
%%abc-version 2.0
%%abcx-abcm2ps-target-version 5.9.1 (29 Sep 2008)
%%abc-creator hum2abc beta
%%abcx-conversion-date 2019/03/15 08:38:45
%%humdrum-veritas 3527437347
%%humdrum-veritas-data 1950236959
%%linebreak <none>
%%barnumbers 0
L: 1/8
M: 3/4
%%staves {1 2}
V: 1 clef=bass
V: 2 clef=bass
K: A
[V:1] [K:clef=bass][M:3/4]A,A,A,2E,2 [I:setbarnb 2]||  
[V:2] [K:clef=bass][M:3/4]G,,2G,,2G,,2 ||  
[V:1] [M:2/4]!fermata!A,3/G,/ E, z ||  
[V:2] [M:2/4]G,,2G,,2 ||  
[V:1] [M:3/8]E,C,/C,/A,, ||  
[V:2] [M:3/8]z3 ||  
[V:1] [M:2/4](3(A,/E,)F,E,2 ||  
[V:2] [M:2/4]z4 ||  
[V:1] [M:3/8]E,C,/C,/A,, :|]  
[V:2] [M:3/8]z3 :|]  



